X: 1
T: Catching Rabbits
M: 4/4
L: 1/8
R: reel
K: Dmaj
AG|FAAB ABde|f2 ef edBA|Beed e2 ef|gefd edBA|
FAAB ABde|f2 ef edBA|Bdef gefd|eAce d2:|
|:ag|(3(fgf) ef edBd|ABde Tf2 ed|Beed e2 ef|[1gefd e2 ag|
(3(fgf) ef edBd|ABde Tf2 ed|Bdef gefd|eAce d2:|
[2gefd edBA|FAAB ABde|f2 ef edBA|Bdef gefd|eAce d2:|
